X: 869
T: Larry O'Gaff - 1st Setting
B: O'Neill's 1850 #869
O: F.O'Neill
Z: Dan G. Petersen, dangp@post6.tele.dk
N: Moved the identical 1st bars of the 4-bar endings outside the endings, for slightly more compactness. [JC]
M: 6/8
L: 1/8
K: G
(3(d/e/f/) |\
gGG BAG | ded dBG | cec BdB | ABc def || gGG BAG | ded dBG |
| cec BdB | AGA G2 :: d | dgg gfg | gaf ged | eaa aga | bgg g2b ||
|c'ba gfe |[1  ded dBG | cec BdB | AGA G2 :|[2 dge dBG | cec BdB | AGA G2 |]
